img/brands/7.svg

<svg width="68" height="20" viewBox="0 0 68 20" fill="none" xmlns="http://www.w3.org/2000/svg">
<path d="M61.9171 0C50.2284 0.00265252 47.2637 6.27321 46.7863 10.5305C46.2447 15.3103 49.7259 20 58.3075 20C61.9199 20 64.2817 19.4032 65.1192 19.1512C65.2233 19.1201 65.3164 19.0628 65.3887 18.9852C65.461 18.9076 65.5097 18.8128 65.5296 18.7109L66.0125 16.2971C66.0292 16.2141 66.0229 16.1285 65.9943 16.0486C65.9657 15.9686 65.9158 15.8971 65.8494 15.841C65.783 15.7848 65.7025 15.746 65.6156 15.7283C65.5287 15.7107 65.4385 15.7147 65.3537 15.7401C64.4157 16.0212 62.7574 16.4085 60.6497 16.4085C56.5488 16.4085 53.5868 14.069 53.9637 10.0424C54.3266 6.14324 57.0931 3.17241 60.901 3.17241C63.1901 3.17241 64.2035 4.313 64.1281 5.83289V5.92042C64.1248 5.98605 64.1354 6.05166 64.1593 6.1133C64.1832 6.17495 64.22 6.23136 64.2675 6.27917C64.3149 6.32697 64.3721 6.36518 64.4354 6.3915C64.4988 6.41783 64.5671 6.43173 64.6362 6.43236H66.1912C66.4313 6.43236 66.6379 6.27321 66.6937 6.05305L67.7824 1.38462C67.817 1.24237 67.7929 1.09294 67.715 0.967107C67.6371 0.841272 67.5114 0.748614 67.3637 0.708223C65.5916 0.23772 63.7599 0.000319598 61.9199 0.00265359L61.9171 0ZM5.64539 0.307693C5.51871 0.307753 5.39581 0.348747 5.29688 0.423942C5.19796 0.499138 5.12889 0.604064 5.10102 0.721486L4.79952 2.00531C4.77036 2.13161 4.79126 2.2637 4.85822 2.37627C4.92519 2.48884 5.03351 2.57398 5.16243 2.61538L5.25456 2.64191C5.83523 2.85942 6.51081 3.34748 6.22606 4.626L4.01506 14.2281C3.43718 16.8462 2.50197 17.3846 1.61422 17.4801H1.5863C1.46852 17.4911 1.35746 17.5373 1.26915 17.6122C1.18084 17.687 1.11984 17.7866 1.09497 17.8966L0.810216 19.1273C0.793138 19.2016 0.793759 19.2785 0.812034 19.3525C0.830309 19.4264 0.865775 19.4956 0.915832 19.5548C0.965889 19.6141 1.02927 19.662 1.10132 19.6949C1.17338 19.7279 1.25229 19.7451 1.33226 19.7454H11.0668C11.3041 19.7454 11.5107 19.5862 11.5609 19.3687L11.8959 17.9284C11.9217 17.8154 11.9044 17.6974 11.8472 17.5954C11.7899 17.4934 11.6964 17.414 11.5833 17.3714L11.5219 17.3448C11.0277 17.1591 10.3549 16.7507 10.528 15.992L11.6587 11.0849C15.5363 17.809 16.8177 19.748 21.4686 19.7454H25.6729C25.7881 19.7455 25.8999 19.7082 25.9898 19.6397C26.0796 19.5712 26.1422 19.4756 26.167 19.3687L26.4601 18.122C26.4779 18.0472 26.478 17.9696 26.4604 17.8948C26.4427 17.8199 26.4078 17.7498 26.3581 17.6893C26.3084 17.6289 26.2452 17.5797 26.173 17.5454C26.1008 17.511 26.0215 17.4924 25.9409 17.4907C24.8912 17.4748 24.3775 17.244 23.3306 15.9655L17.9371 9.03183L24.9442 3.49337C25.885 2.7931 27.0324 2.59682 27.6689 2.51724L27.7303 2.51194C27.8389 2.50208 27.9414 2.45982 28.0232 2.3912C28.1049 2.32259 28.1617 2.23114 28.1854 2.12997L28.4729 0.899206C28.4892 0.827946 28.4884 0.754128 28.4707 0.683177C28.453 0.612227 28.4188 0.545946 28.3706 0.489207C28.3224 0.432468 28.2614 0.386712 28.1922 0.355301C28.1229 0.323889 28.0471 0.307621 27.9704 0.307693H19.5395C19.4141 0.308337 19.2925 0.349325 19.1947 0.42398C19.0969 0.498635 19.0285 0.602561 19.0008 0.718835L18.716 1.93899C18.6854 2.06992 18.7081 2.20701 18.7796 2.32266C18.8511 2.43831 18.966 2.52395 19.1013 2.56234C19.5982 2.74536 19.707 3.19894 19.2771 3.53316L12.0942 9.20424L13.3225 3.86207C13.4059 3.5548 13.5729 3.27375 13.8066 3.04704C14.0403 2.82034 14.3325 2.65594 14.6541 2.57029L14.7239 2.54907C14.8173 2.52137 14.9013 2.47072 14.9675 2.40225C15.0337 2.33378 15.0797 2.24992 15.1008 2.15915L15.3967 0.893901C15.413 0.8237 15.4125 0.750915 15.3953 0.680921C15.378 0.610927 15.3444 0.545508 15.297 0.489495C15.2495 0.433483 15.1895 0.388306 15.1212 0.357299C15.053 0.326292 14.9782 0.310246 14.9026 0.310346L5.64539 0.307693ZM30.4354 0.307693C30.3092 0.308353 30.187 0.349623 30.0886 0.42477C29.9903 0.499916 29.9216 0.604506 29.8939 0.721486L29.5952 2.00265C29.5665 2.12304 29.5854 2.24922 29.6482 2.35727C29.711 2.46532 29.8133 2.54772 29.9357 2.58886L29.9916 2.61008C30.5611 2.81432 31.3511 3.33687 31.0077 4.62069L27.6298 19.1565C27.613 19.2272 27.6133 19.3007 27.6304 19.3713C27.6476 19.442 27.6813 19.508 27.7291 19.5646C27.7768 19.6212 27.8374 19.6668 27.9062 19.6981C27.975 19.7294 28.0504 19.7455 28.1267 19.7454H35.8792C36.1193 19.7454 36.3259 19.5862 36.3789 19.366L36.7139 17.9151C36.738 17.8118 36.7239 17.7038 36.6741 17.6091C36.6243 17.5145 36.5418 17.439 36.4403 17.3952C36.4151 17.384 36.39 17.3725 36.365 17.3607C35.8736 17.1326 35.1422 16.6048 35.3879 15.5836C35.413 15.4509 36.1416 12.2944 36.1416 12.2944H42.7356C42.9756 12.2944 43.1822 12.1353 43.2381 11.9151L43.855 9.2626C43.8723 9.19111 43.8723 9.11681 43.8551 9.04531C43.8378 8.97381 43.8037 8.90695 43.7554 8.84977C43.707 8.79259 43.6456 8.74656 43.5759 8.71515C43.5061 8.68375 43.4297 8.66777 43.3525 8.66844H36.9875L38.1796 3.52255L42.6239 3.51459C44.0616 3.51459 44.4999 4.23077 44.4161 5.44562L44.4106 5.50928C44.4023 5.57767 44.4093 5.64695 44.4313 5.71257C44.4532 5.77819 44.4894 5.83866 44.5377 5.89001C44.5859 5.94136 44.6451 5.98244 44.7112 6.01054C44.7773 6.03864 44.849 6.05313 44.9214 6.05305H46.5602C46.8002 6.05305 47.0068 5.8939 47.0571 5.67109L48.1737 0.896552C48.1895 0.825478 48.1884 0.751951 48.1705 0.681336C48.1526 0.61072 48.1183 0.544798 48.0701 0.488375C48.022 0.431951 47.9612 0.38645 47.8922 0.355192C47.8232 0.323934 47.7477 0.307706 47.6712 0.307693H30.4354Z" fill="#8F90A6"/>
</svg>

<svg width="68" height="20" fill="none" xmlns="http://www.w3.org/2000/svg"><path d="M61.917 0c-11.689.003-14.653 6.273-15.13 10.53-.542 4.78 2.939 9.47 11.52 9.47 3.613 0 5.975-.597 6.812-.849a.604.604 0 0 0 .27-.166.56.56 0 0 0 .14-.274l.484-2.414a.464.464 0 0 0-.019-.248.487.487 0 0 0-.145-.208.523.523 0 0 0-.495-.1 16.55 16.55 0 0 1-4.704.668c-4.101 0-7.063-2.34-6.686-6.367.363-3.899 3.13-6.87 6.937-6.87 2.29 0 3.303 1.141 3.227 2.66v.088a.468.468 0 0 0 .14.36.515.515 0 0 0 .368.152h1.555c.24 0 .447-.159.503-.379l1.088-4.668a.546.546 0 0 0-.067-.418.597.597 0 0 0-.351-.259A21.118 21.118 0 0 0 61.92.003L61.917 0zM5.645.308a.577.577 0 0 0-.348.116A.528.528 0 0 0 5.1.72L4.8 2.005a.503.503 0 0 0 .058.371.547.547 0 0 0 .304.24l.093.026c.58.217 1.256.705.971 1.984l-2.21 9.602c-.579 2.618-1.514 3.157-2.402 3.252h-.028a.573.573 0 0 0-.317.132.525.525 0 0 0-.174.285l-.285 1.23a.485.485 0 0 0 .106.428c.05.06.113.107.185.14a.56.56 0 0 0 .231.05h9.735c.237 0 .444-.159.494-.376l.335-1.44a.467.467 0 0 0-.049-.334.506.506 0 0 0-.264-.224l-.061-.026c-.494-.186-1.167-.594-.994-1.353l1.13-4.907c3.878 6.724 5.16 8.663 9.81 8.66h4.205a.523.523 0 0 0 .317-.105.477.477 0 0 0 .177-.271l.293-1.247a.493.493 0 0 0-.102-.433.568.568 0 0 0-.417-.199c-1.05-.015-1.563-.246-2.61-1.525l-5.394-6.933 7.007-5.539c.941-.7 2.088-.896 2.725-.976l.061-.005a.53.53 0 0 0 .293-.12.487.487 0 0 0 .162-.262L28.473.9a.464.464 0 0 0-.102-.41.537.537 0 0 0-.4-.182H19.54a.574.574 0 0 0-.345.116.525.525 0 0 0-.194.295l-.285 1.22a.508.508 0 0 0 .064.384.555.555 0 0 0 .321.24c.497.182.606.636.176.97l-7.183 5.671 1.229-5.342a1.79 1.79 0 0 1 .484-.815 1.93 1.93 0 0 1 .847-.477l.07-.02a.56.56 0 0 0 .243-.148.52.52 0 0 0 .134-.243l.296-1.265a.458.458 0 0 0-.1-.405.527.527 0 0 0-.394-.18L5.645.31zm24.79 0a.577.577 0 0 0-.346.117.527.527 0 0 0-.195.296l-.299 1.282a.482.482 0 0 0 .053.354c.063.108.165.19.288.232l.056.021c.57.204 1.36.727 1.016 2.01L27.63 19.158a.46.46 0 0 0 .1.408.531.531 0 0 0 .398.18h7.751c.24 0 .447-.159.5-.379l.335-1.45a.44.44 0 0 0-.04-.307.476.476 0 0 0-.234-.214 3.637 3.637 0 0 1-.075-.034c-.491-.228-1.223-.756-.977-1.777.025-.133.754-3.29.754-3.29h6.594c.24 0 .446-.159.502-.379l.617-2.652a.463.463 0 0 0-.1-.413.509.509 0 0 0-.403-.182h-6.364l1.192-5.145 4.444-.008c1.438 0 1.876.716 1.792 1.93l-.005.064a.463.463 0 0 0 .127.381.513.513 0 0 0 .383.163h1.64c.24 0 .446-.16.496-.382L48.174.897a.465.465 0 0 0-.104-.409.536.536 0 0 0-.399-.18H30.435z" fill="#8F90A6"/></svg>
